images/eurxb.svg

<svg height="250" viewBox="0 0 250 250" width="250" xmlns="http://www.w3.org/2000/svg"><path d="m250 125c0 69.035156-55.964844 125-125 125s-125-55.964844-125-125 55.964844-125 125-125 125 55.964844 125 125zm0 0" fill="#5591f1"/><g fill="#fff"><path d="m187.882812 86.386719h-83.53125c-10.445312 0-18.914062-8.46875-18.914062-18.914063 0-10.445312 8.46875-18.914062 18.914062-18.914062h83.53125c10.445313 0 18.914063 8.46875 18.914063 18.914062 0 10.445313-8.46875 18.914063-18.914063 18.914063zm0 0"/><path d="m150.050781 201.441406h-65.828125c-26.25 0-47.609375-21.355468-47.609375-47.605468s21.359375-47.609376 47.609375-47.609376h84.742188c10.449218 0 18.914062 8.46875 18.914062 18.914063s-8.464844 18.914063-18.914062 18.914063h-84.742188c-5.300781 0-9.78125 4.480468-9.78125 9.78125 0 5.300781 4.480469 9.777343 9.78125 9.777343h65.828125c10.445313 0 18.914063 8.46875 18.914063 18.914063 0 10.445312-8.46875 18.914062-18.914063 18.914062"/></g></svg>

<svg xmlns="http://www.w3.org/2000/svg" xmlns:xlink="http://www.w3.org/1999/xlink" width="250px" height="250px" viewBox="0 0 250 250" version="1.1">
<g id="surface1">
<path style=" stroke:none;fill-rule:nonzero;fill:rgb(33.333334%,56.862748%,94.509804%);fill-opacity:1;" d="M 250 125 C 250 194.035156 194.035156 250 125 250 C 55.964844 250 0 194.035156 0 125 C 0 55.964844 55.964844 0 125 0 C 194.035156 0 250 55.964844 250 125 Z M 250 125 "/>
<path style=" stroke:none;fill-rule:nonzero;fill:rgb(100%,100%,100%);fill-opacity:1;" d="M 187.882812 86.386719 L 104.351562 86.386719 C 93.90625 86.386719 85.4375 77.917969 85.4375 67.472656 C 85.4375 57.027344 93.90625 48.558594 104.351562 48.558594 L 187.882812 48.558594 C 198.328125 48.558594 206.796875 57.027344 206.796875 67.472656 C 206.796875 77.917969 198.328125 86.386719 187.882812 86.386719 Z M 187.882812 86.386719 "/>
<path style=" stroke:none;fill-rule:nonzero;fill:rgb(100%,100%,100%);fill-opacity:1;" d="M 150.050781 201.441406 L 84.222656 201.441406 C 57.972656 201.441406 36.613281 180.085938 36.613281 153.835938 C 36.613281 127.585938 57.972656 106.226562 84.222656 106.226562 L 168.964844 106.226562 C 179.414062 106.226562 187.878906 114.695312 187.878906 125.140625 C 187.878906 135.585938 179.414062 144.054688 168.964844 144.054688 L 84.222656 144.054688 C 78.921875 144.054688 74.441406 148.535156 74.441406 153.835938 C 74.441406 159.136719 78.921875 163.613281 84.222656 163.613281 L 150.050781 163.613281 C 160.496094 163.613281 168.964844 172.082031 168.964844 182.527344 C 168.964844 192.972656 160.496094 201.441406 150.050781 201.441406 "/>
</g>
</svg>
